X: 152
M: 3/4
L: 1/8
K: G
(3(GAB) |\
f>ed>^c d2 | d4 :: d2 |\
g2 d2 c2 | B3 A G2 |
e2 e4 | d2 e>dc>B |\
(3(GAB) G4 | f2 {f2}g4 |\
dcBA G2 | G4 :|

